X:180
T:Killavil
Z: id:dc-reel-383
M:C
L:1/8
K:D Major
F|D2AD BDAD|D2AD BDAD|E2BE dEBE|BABc dBAF|!
D2AD BDAD|D2AD BDAD|GFEF GABc|d2fd BdA:|!
B|d2fd Adfa|g2fg edBc|d2fd Adfa|g2fg e2A2|!
d2fd Adfa|g2fg edBc|dcBA Bcde|f2ed BdA:|!

